src/icons/src/check.svg

<svg height="30" viewBox="0 0 30 30" width="30" xmlns="http://www.w3.org/2000/svg"><path d="m12.0447393 22.1046471-3.74804297-4.9522841c-.48778057-.6430312-.36085272-1.5587998.28322743-2.0465804.64512915-.4898786 1.56089784-.3608527 2.04867844.2832274l2.4661766 3.2560665 6.2005828-9.9570177c.4269391-.6839418 1.3290709-.89373989 2.0151107-.46680077.6849908.42589014.8958378 1.32802196.4678497 2.01406177l-7.3261495 11.7591833c-.2538557.4101563-.6933838.6661089-1.1748693.6881377-.0230778.002097-.0440577.002097-.0671354.002097-.4563109 0-.888495-.212944-1.1654285-.5800907z"/></svg>

<?xml version="1.0" encoding="UTF-8"?>
<svg width="30px" height="30px" viewBox="0 0 30 30" version="1.1" xmlns="http://www.w3.org/2000/svg" xmlns:xlink="http://www.w3.org/1999/xlink">
  <title>Icons / Check</title>
  <desc>Created with Sketch.</desc>
  <g id="Icons-/-Check" stroke="none" stroke-width="1">
    <path d="M12.0447393,22.1046471 L8.29669633,17.152363 C7.80891576,16.5093318 7.93584361,15.5935632 8.57992376,15.1057826 C9.22505291,14.615904 10.1408216,14.7449299 10.6286022,15.38901 L13.0947788,18.6450765 L19.2953616,8.6880588 C19.7223007,8.004117 20.6244325,7.79431891 21.3104723,8.22125803 C21.9954631,8.64714817 22.2063101,9.54927999 21.778322,10.2353198 L14.4521725,21.9945031 C14.1983168,22.4046594 13.7587887,22.660612 13.2773032,22.6826408 C13.2542254,22.6847378 13.2332455,22.6847378 13.2101678,22.6847378 C12.7538569,22.6847378 12.3216728,22.4717938 12.0447393,22.1046471 Z" id="Color"></path>
  </g>
</svg>
